X:4014
T:Donnybrook Fair
T:Joy of My Life, The
R:Jig
C:Trad.
O:Ireland.
Z:Paul Hardy's Session Tunebook 2022 (see www.paulhardy.net). Creative Commons cc by-nc-sa licenced.
M:6/8
L:1/8
Q:3/8=80
K:G
D|"G"GFG "D"AGA|"Em"Bee "D"dBA|"G"B3 GAB|"Am"AGF "D"FED|
"G"GFG "D"AGA|"Em"Bee "D"dBA|"G"B3 GAB|"D"AGF "G"G2:|
f|"Em"g3 "D"fed|"C"ege "D"dBA|"Em"Bee "D"dBA|"Em"Bee e2f|
"G"gfe "D"fed|"C"ege "D"dBA|"G"B3 GAB|"D"AGF "G"G2f|
"Em"g3 "D"fed|"C"ege "D"dBA|"Em"Bee "D"dBA|"Em"Bee e2f|
"G"g3 "D"a3|"Em"bge "D"dBA|"G"B3 GAB|"D"AGF "G"G2|]

